img/icons/dev_end.svg

<svg height="14" viewBox="0 0 14 14" width="14" xmlns="http://www.w3.org/2000/svg"><g fill="#ff806a" fill-rule="evenodd"><path d="m9.78190939 7.53486775 4.21109061 4.00806645.005.46-1.392 1.392-.459-.004-2.4764796-2.6021553c.21285209-.5554179.3294796-1.15847847.3294796-1.7887789 0-.40783648-.04882901-.80426834-.1409598-1.18376834zm-4.55190939-6.35793355c.68684211-.68589474 1.98847645-.76417729 2.74003353-.15407203l.11996647.10807203 1.201 1.201-.037.14c-.56769231-.14584616-1.31176331.10026035-1.80040965.51809194l-.11659035.10790806-1.06574752 1.06510782c-.40591495-.10639236-.8319681-.16304202-1.27125248-.16304202-1.85553803 0-3.47500179 1.01075407-4.33784538 2.5117163l-.66215462-.6607821v-.464l.971-.972.511.511 1.32-1.321-.277-.279.005-.47.928-.928.47-.005.28.277z" fill-rule="nonzero"/><path d="m5 5c2.209139 0 4 1.790861 4 4s-1.790861 4-4 4-4-1.790861-4-4 1.790861-4 4-4zm1.06066017 2.23223305-1.06066017 1.06076695-1.06066017-1.06076695-.70710678.70710678 1.06076695 1.06066017-1.06076695 1.0606602.70710678.7071068 1.06066017-1.060767 1.06066017 1.060767.70710678-.7071068-1.06076695-1.0606602 1.06076695-1.06066017z"/></g></svg>

<?xml version="1.0" encoding="UTF-8"?>
<svg width="14px" height="14px" viewBox="0 0 14 14" version="1.1" xmlns="http://www.w3.org/2000/svg" xmlns:xlink="http://www.w3.org/1999/xlink">
    <title>dev_end</title>
    <g id="Icon" stroke="none" stroke-width="1" fill="none" fill-rule="evenodd">
        <g id="Visual-Studio" transform="translate(-155.000000, -126.000000)">
            <g id="dev_end" transform="translate(155.000000, 126.000000)">
                <path d="M9.78190939,7.53486775 L13.993,11.5429342 L13.998,12.0029342 L12.606,13.3949342 L12.147,13.3909342 L9.6705204,10.7887789 C9.88337249,10.233361 10,9.63030043 10,9 C10,8.59216352 9.95117099,8.19573166 9.8590402,7.81623166 L9.78190939,7.53486775 Z M5.23,1.1769342 C5.91684211,0.49103946 7.21847645,0.412756911 7.97003353,1.02286217 L8.09,1.1309342 L9.291,2.3319342 L9.254,2.4719342 C8.68630769,2.32608804 7.94223669,2.57219455 7.45359035,2.99002614 L7.337,3.0979342 L6.27125248,4.16304202 C5.86533753,4.05664966 5.43928438,4 5,4 C3.14446197,4 1.52499821,5.01075407 0.662154617,6.5117163 L5.68434189e-14,5.8509342 L5.68434189e-14,5.3869342 L0.971,4.4149342 L1.482,4.9259342 L2.802,3.6049342 L2.525,3.3259342 L2.53,2.8559342 L3.458,1.9279342 L3.928,1.9229342 L4.208,2.1999342 L5.23,1.1769342 Z" id="形状" fill="#FF806A" fill-rule="nonzero"></path>
                <path d="M5,5 C7.209139,5 9,6.790861 9,9 C9,11.209139 7.209139,13 5,13 C2.790861,13 1,11.209139 1,9 C1,6.790861 2.790861,5 5,5 Z M6.06066017,7.23223305 L5,8.293 L3.93933983,7.23223305 L3.23223305,7.93933983 L4.293,9 L3.23223305,10.0606602 L3.93933983,10.767767 L5,9.707 L6.06066017,10.767767 L6.76776695,10.0606602 L5.707,9 L6.76776695,7.93933983 L6.06066017,7.23223305 Z" id="形状结合" fill="#FF806A"></path>
                <g id="编组" transform="translate(5.000000, 9.000000) rotate(-315.000000) translate(-5.000000, -9.000000) translate(4.500000, 7.000000)"></g>
            </g>
        </g>
    </g>
</svg>
